symbols/web/contacts/materialsymbolssharp/contacts_wght600fill1_40px.svg

<svg xmlns="http://www.w3.org/2000/svg" height="40" width="40"><path d="M5.625 38.958v-2.791h28.75v2.791Zm0-35.125V1.042h28.75v2.791Zm14.375 18q2.167 0 3.625-1.458 1.458-1.458 1.458-3.625 0-2.125-1.458-3.604T20 11.667q-2.167 0-3.625 1.458-1.458 1.458-1.458 3.625t1.458 3.625q1.458 1.458 3.625 1.458ZM2.5 33.958V6.042h35v27.916ZM9 30.542h22q-1.875-2.542-4.854-4-2.979-1.459-6.146-1.459-3.208 0-6.146 1.459Q10.917 28 9 30.542Z"/></svg>

<svg xmlns="http://www.w3.org/2000/svg" height="40" width="40"><path d="M5.625 38.958V36.167H34.375V38.958ZM5.625 3.833V1.042H34.375V3.833ZM20 21.833Q22.167 21.833 23.625 20.375Q25.083 18.917 25.083 16.75Q25.083 14.625 23.625 13.146Q22.167 11.667 20 11.667Q17.833 11.667 16.375 13.125Q14.917 14.583 14.917 16.75Q14.917 18.917 16.375 20.375Q17.833 21.833 20 21.833ZM2.5 33.958V6.042H37.5V33.958ZM9 30.542H31Q29.125 28 26.146 26.542Q23.167 25.083 20 25.083Q16.792 25.083 13.854 26.542Q10.917 28 9 30.542Z"/></svg>
